packages/sources/icons/src/vitamix/eye-off-fill.svg

<svg width="16" height="16" viewBox="0 0 16 16" xmlns="http://www.w3.org/2000/svg"><path fill-rule="evenodd" clip-rule="evenodd" d="M3.01335 3.95598L0.928687 1.87198L1.87202 0.92865L15.0714 14.1286L14.128 15.0713L11.9214 12.8646C10.7488 13.6084 9.38851 14.0022 8.00002 14C4.40535 14 1.41469 11.4133 0.787354 7.99998C1.07404 6.44713 1.85444 5.02858 3.01335 3.95598ZM9.83799 10.7813L8.86199 9.80528C8.09696 10.1713 7.18426 10.0151 6.58457 9.41537C5.98489 8.81568 5.82862 7.90298 6.19466 7.13795L5.21866 6.16195C4.34412 7.48346 4.52087 9.238 5.6414 10.3585C6.76194 11.4791 8.51648 11.6558 9.83799 10.7813ZM8.00003 2.00001C7.05336 2.00001 6.14736 2.18001 5.31603 2.50667L7.51136 4.70134C8.55554 4.54633 9.61142 4.89508 10.3579 5.64152C11.1043 6.38795 11.453 7.44383 11.298 8.48801L13.8714 11.0613C14.5493 10.1584 15.0084 9.11047 15.2127 8C14.5854 4.58667 11.5947 2.00001 8.00003 2.00001Z"/></svg>

<svg width="16" height="16" xmlns="http://www.w3.org/2000/svg"><path fill-rule="evenodd" clip-rule="evenodd" d="M3.013 3.956.93 1.872l.943-.943 13.2 13.2-.944.942-2.207-2.206A7.336 7.336 0 0 1 .787 8a7.32 7.32 0 0 1 2.226-4.044Zm6.825 6.825-.976-.976a2 2 0 0 1-2.667-2.667l-.976-.976a3.333 3.333 0 0 0 4.619 4.62ZM8 2c-.947 0-1.853.18-2.684.507L7.511 4.7a3.333 3.333 0 0 1 3.787 3.787l2.573 2.573A7.298 7.298 0 0 0 15.213 8 7.336 7.336 0 0 0 8 2Z"/></svg>
